X:1
T:Title
%%score { ( 1 4 ) | ( 2 3 ) }
L:1/8
Q:1/4=108
M:4/4
K:Eb
V:1 treble nm="Grand Piano"
V:4 treble 
V:2 bass 
V:3 bass 
V:1
 [EG]2 [GB]2 [Ac]2 [GB]2 | E2 F2 G4 | [FA]2 [Ac]2 [Ad]2 [B,Ac]2 | [B,GB]2 .[CFA]2 [EG]4 | %4
w: C.~Austin~Miles * * *||||
 [B,EG]2 [GB]2 [Ac]2 [GB]2 | E2 F2 G4 | F4 c3 d | [DB]6 z2 | G2 G2 B4 | A2 [DB]2 G3 G | %10
w: ||||||
 F>F F>G =A2 e2 | d2 c2 [B,DB]4 | [B,B]2- [B,EB]2 [B,FB]2 [B,AB]2 | [B,GB]3 [B,_G=A] [E=GB]4 | %14
w: ||||
 c4 z4 | d3 c =B>B c>d | [Ge]2 z2 z z/ [EG]/ A>B | c6 cc | B4 d4 | [Ge]6 z2 |] %20
w: ||||||
V:2
 [E,B,]2 [E,E]2 [E,E]2 [E,E]2 | [G,B,]2 [F,B,D]2 [E,B,E]4 | [B,,B,]2 [B,,B,]2 [B,,B,]2 C,D, | %3
 E,2 z D E,4 | E,2 [E,E]2 [E,E]2 [E,E]2 | [G,B,]2 [F,B,D]2 [E,B,E]4 | [F,=A,E]4 [F,A,E]3 [F,A,F] | %7
 [B,,B,]6 z2 | [E,B,E]2 [E,B,E]2 [G,B,E]4 | [F,B,D]2 [B,,B,]2 [E,B,E]3 [E,B,E] | %10
 [F,=A,E]>[F,A,E] [F,A,E]>[F,B,E] [F,CE]2 [F,A,G]2 | [F,B,F]2 [F,=A,E]2 B,,4 | B,,2 C,2 D,2 F,2 | %13
 E,3 E, E,4 | [A,EA]2 [G,=E]2[K:bass] [F,F]2 [F,C]2 | [B,A]3 [B,CA] [B,DA]>[B,DA] [B,EA]>[B,FA] | %16
 [E,E]2 z2 z z/ [B,,B,]/ [F,B,D]>[K:treble][G,B,E] | [A,EA]6 [=A,E_G][A,EG] | [EG]4 [FA]4 | %19
 [E,E]6 z2 |] %20
V:3
 x8 | x8 | x8 | z2 E,2 z4 | x8 | x8 | x8 | x8 | x8 | x8 | x8 | x8 | x8 | x8 | x4[K:bass] x4 | x8 | %16
 x15/2[K:treble] x/ | x8 | B,8 | x8 |] %20
V:4
 x8 | x8 | x8 | x8 | x8 | x8 | x8 | x8 | x8 | x8 | x8 | x8 | D2 z2 z4 | x8 | z2 B2 [=Ac]2 [Ae]2 | %15
 x8 | x8 | x8 | x8 | x8 |] %20

